X: 17812
T: Hop Down, The
R: reel
M: 4/4
K: Amixolydian
gf|:e2[A2E2] [A3E3]B|A2Bd edBA|agec d2ed|BAGB d2 gf|
e2[A2E2] [A3E3]B|A2Bd edBA|agec dfed|BAGB d2 cd:|
|:eA~A2 eAfA|eAfA [g2B2]fg|eA~A2 eAaA|BAGB d2 cd|
eA~A2 eAfA|eAfA [g3B3] a|bgaf gfed|BAGB cd:|

